svg/OSM-icons/craft #ff8000 °ffffff !label=encrafts,deHerstellung, Produktion/16106;craft=photographer;[addr];[contact];!label=enphotographer,deFotograf.svg

<svg xmlns="http://www.w3.org/2000/svg" viewBox="0 0 580 580" enable-background="new 0 0 580 580"><path fill="#111" stroke="#eee" stroke-width="3.408" d="m66.28 1.768c-41.34 0-64.57 21.371-64.57 65.04v450.12c0 40.844 20.895 62.23 62.19 62.23h452.02c41.31 0 62.23-20.315 62.23-62.23v-450.12c0-42.602-20.923-65.04-63.52-65.04-.003 0-448.5-.143-448.35 0z"/><g fill="#fff"><path d="m242.13 339.71h98.36v18h-98.36z"/><path d="m313.81 66.16h-47.12l-9.739 14.215h65.74l-8.877-14.215m-13.76 12.836h-19.753v-11.138h19.753v11.138"/><path d="m365.07 72.17h-19.39l-3.44 8.11h25.97z"/><path d="m233.74 74.965h-14.57l-1.69 5.265h17.48z"/><path d="m307.89 173.19c14.846-.004 26.876-12.04 26.87-26.889 0-.006 0-.013 0-.02-.006-14.845-12.04-26.875-26.89-26.87-14.845.005-26.876 12.04-26.87 26.889 0 .007 0 .013 0 .02.006 14.846 12.05 26.877 26.89 26.87"/><path d="m304.69 209.41h66.54c9.389 0 16.946-7.559 16.946-16.947v-90.56c0-9.388-7.558-16.947-16.946-16.947h-162.45c-9.388 0-16.947 7.559-16.947 16.947v90.56c0 9.388 7.559 16.947 16.947 16.947h66.54l-101.53 304.42h19.632l96.58-289.59 96.58 289.59h19.633l-101.53-304.42m3.202-108.1c24.849 0 44.996 20.14 44.996 44.985 0 24.85-20.15 44.997-44.996 44.997-24.851 0-44.998-20.15-44.998-44.997 0-24.85 20.15-44.985 44.998-44.985"/></g></svg>

<?xml version="1.0" encoding="utf-8"?>
<!-- Generator: Adobe Illustrator 15.0.0, SVG Export Plug-In . SVG Version: 6.00 Build 0)  -->
<!DOCTYPE svg PUBLIC "-//W3C//DTD SVG 1.1//EN" "http://www.w3.org/Graphics/SVG/1.1/DTD/svg11.dtd">
<svg version="1.1" xmlns="http://www.w3.org/2000/svg" xmlns:xlink="http://www.w3.org/1999/xlink" x="0px" y="0px" width="580px"
	 height="580px" viewBox="0 0 580 580" enable-background="new 0 0 580 580" xml:space="preserve">
<g id="Layer_2_1_">
	<g id="Layer_2">
		<g id="g1327">
			<path id="path1329" fill="#111111" stroke="#EEEEEE" stroke-width="3.408" d="M66.275,1.768
				c-41.335,0-64.571,21.371-64.571,65.036v450.123c0,40.844,20.895,62.229,62.192,62.229h452.024
				c41.307,0,62.229-20.315,62.229-62.229V66.804c0-42.602-20.923-65.036-63.521-65.036C514.625,1.768,66.133,1.625,66.275,1.768z"
				/>
		</g>
	</g>
</g>
<g id="Layer_1">
	<g>
		<rect x="242.127" y="339.709" fill="#FFFFFF" width="98.36" height="18"/>
	</g>
	<g>
		<path fill="#FFFFFF" d="M313.807,66.162h-47.124l-9.739,14.215h65.74L313.807,66.162z M300.047,78.998h-19.753V67.86h19.753
			V78.998z"/>
		<polygon fill="#FFFFFF" points="365.068,72.175 345.683,72.175 342.237,80.284 368.215,80.284 		"/>
		<polygon fill="#FFFFFF" points="233.739,74.965 219.167,74.965 217.481,80.228 234.956,80.228 		"/>
		<path fill="#FFFFFF" d="M307.895,173.195c14.846-0.004,26.876-12.043,26.87-26.889c0-0.006,0-0.013,0-0.02
			c-0.006-14.845-12.044-26.875-26.89-26.87c-14.845,0.005-26.876,12.044-26.87,26.889c0,0.007,0,0.013,0,0.02
			C281.011,161.171,293.051,173.202,307.895,173.195z"/>
		<path fill="#FFFFFF" d="M304.685,209.413h66.538c9.389,0,16.946-7.559,16.946-16.947v-90.565c0-9.388-7.558-16.947-16.946-16.947
			H208.777c-9.388,0-16.947,7.559-16.947,16.947v90.565c0,9.388,7.559,16.947,16.947,16.947h66.538L173.786,513.837h19.632
			L290,224.247l96.581,289.589h19.633L304.685,209.413z M307.887,101.318c24.849,0,44.996,20.136,44.996,44.985
			c0,24.85-20.147,44.997-44.996,44.997c-24.851,0-44.998-20.147-44.998-44.997C262.889,121.453,283.037,101.318,307.887,101.318z"
			/>
	</g>
</g>
</svg>
